X:40
T:Mary Willie's
M:12/8
L:1/8
K:D
A|"D"d2 e f2 e dcd "Em"!roll!B3|"A7"g2 A cBA"A"e2 A cBA|
"D"d2 e f2 e dcd "Em"!roll!B3|"A7"g2 A cBA "D"d3 d2 :|]
A|"D"d2 e f2 a baf a2 f|"A"e2 A cBA efe cBA|
"D"d2 e f2 a baf a2 f|"A"e2 A cBA "D"d3 d2:|]



